X: 2
T: Fraher's
R: jig
M: 6/8
L: 1/8
K: Dmix
~A3 AGA|~D3 FED|~A3 AGA|~D3 FED|~A3 AGA|~D3 EFG|~A3 AGA|~D3 FED|~A3 AGA|~D3 FED|~A3 AGA|~D3 FED|~A3 AGA|~D3 EFG|~A3 AGA|~D3 D3|~A3 d2A|d2A AGF|GAB c2A|B2G GFG|Add ded|cAA AGF|~A3 AGA|~D3 D3|~A3 d2A|d2A AGF|GAB c2A|B2G GFG|Add ded|cAA AGF|~A3 AGA|~D3 D3|


Tune 992	Setting 14198

